X:1
T:Title
L:1/8
M:6/8
K:Ab
V:1 treble nm="Grand Piano"
V:1
 z2[Q:1/4=140] F F2 A | c3 c3- | c2 d c2 B | B6- | B2 G A2 B | c6- | c2 F F2 A | c3 c3- | %8
 c2 d c2 B | B6- | B2 G A2 B | G6- | G2 C D2 =E | F6- | F2 F F2 A | G2 F F2 G | =E6- | E2 G G2 B | %18
 A2 G G2 B | A2 G G2 A | F6- | F2 c- c2 B | e2 d c2 B | A2 B A3 | G6- | G2 A- A2 G | F6 | %27
 z2 F F2 G | A2 A G2 F | A2 A G2 F | G6- | G2 G G2 A | B2 B A2 G | B2 B A2 G | A6- | A2 c e2 d | %36
 c2 B d2 c | B2 A B2 c | G6- | G2 G G2 A | B2 B B2 c | d2 c G2 A | F6- | F2 z z3 |] %44

